include/LD/assets/icons/utility/close.svg

<?xml version="1.0"?><svg xmlns="http://www.w3.org/2000/svg" width="52" height="52" viewBox="0 0 52 52"><path fill="#fff" d="m31 25.4l13-13.1c0.6-0.6 0.6-1.5 0-2.1l-2-2.1c-0.6-0.6-1.5-0.6-2.1 0l-13.1 13.1c-0.4 0.4-1 0.4-1.4 0l-13.1-13.2c-0.6-0.6-1.5-0.6-2.1 0l-2.1 2.1c-0.6 0.6-0.6 1.5 0 2.1l13.1 13.1c0.4 0.4 0.4 1 0 1.4l-13.2 13.2c-0.6 0.6-0.6 1.5 0 2.1l2.1 2.1c0.6 0.6 1.5 0.6 2.1 0l13.1-13.1c0.4-0.4 1-0.4 1.4 0l13.1 13.1c0.6 0.6 1.5 0.6 2.1 0l2.1-2.1c0.6-0.6 0.6-1.5 0-2.1l-13-13.1c-0.4-0.4-0.4-1 0-1.4z"></path></svg>

<svg xmlns="http://www.w3.org/2000/svg" x="0px" y="0px"
	 width="52px" height="52px" viewBox="0 0 52 52" enable-background="new 0 0 52 52" xml:space="preserve">
<path fill="#FFFFFF" d="M31,25.4L44,12.3c0.6-0.6,0.6-1.5,0-2.1L42,8.1c-0.6-0.6-1.5-0.6-2.1,0L26.8,21.2c-0.4,0.4-1,0.4-1.4,0
	L12.3,8c-0.6-0.6-1.5-0.6-2.1,0l-2.1,2.1c-0.6,0.6-0.6,1.5,0,2.1l13.1,13.1c0.4,0.4,0.4,1,0,1.4L8,39.9c-0.6,0.6-0.6,1.5,0,2.1
	l2.1,2.1c0.6,0.6,1.5,0.6,2.1,0L25.3,31c0.4-0.4,1-0.4,1.4,0l13.1,13.1c0.6,0.6,1.5,0.6,2.1,0l2.1-2.1c0.6-0.6,0.6-1.5,0-2.1
	L31,26.8C30.6,26.4,30.6,25.8,31,25.4z"/>
</svg>
